X: 097
T: Ploughman's Whistle
M: 6/8
L: 1/8
Q: 1/4=48
B: George Petrie Collection, 1855, 1882
K: Bb % 2 flats
V: 1
z3 z2
B/G/ | FGB c2d | B3-B2G | FGB c2d |
f3-fdB | FGB c2d | B3-B2G | FGB c2d |
f3-fdB | FGB c2B | B3-B3- | B3-B3- |
B3 b2 |]

